X:12
T:Crucaharan Cross
R:march
D:De Danann: Selected Jigs, Reels & Songs
Z:id:hn-march-12
M:2/4
L:1/8
Q:1/4=120
K:G
B/A/|:Gd Bd|G>G Ge|dB B/A/G/A/|BA AB/A/|
Gd Bd|G>G Ge|dB A/B/A|1 G2 GB/A/:|2 G2 Gd||
|:e>d e/f/g|G2 Ge|dB B/A/G/A/|BA AB/A/|
Gd Bd|G>G Ge|dB A/B/A|1 G2 Gd:|2 G2 G||

